icons/svg/seamark/notice_information_motorcraftpermitted.svg

<?xml version="1.0" encoding="UTF-8" standalone="no"?>
<svg
   xmlns:dc="http://purl.org/dc/elements/1.1/"
   xmlns:cc="http://creativecommons.org/ns#"
   xmlns:rdf="http://www.w3.org/1999/02/22-rdf-syntax-ns#"
   xmlns:svg="http://www.w3.org/2000/svg"
   xmlns="http://www.w3.org/2000/svg"
   xmlns:sodipodi="http://sodipodi.sourceforge.net/DTD/sodipodi-0.dtd"
   xmlns:inkscape="http://www.inkscape.org/namespaces/inkscape"
   width="320"
   height="320"
   id="svg2"
   version="1.1"
   inkscape:version="0.48.4 r9939"
   sodipodi:docname="notice_information_telephone.svg">
  <defs
     id="defs13">
    <inkscape:path-effect
       effect="gears"
       id="path-effect3774"
       is_visible="true"
       teeth="6"
       phi="-1.2" />
    <inkscape:path-effect
       effect="bend_path"
       id="path-effect3772"
       is_visible="false"
       bendpath="m 95.790098,316.51174 c 144.429032,-206.42506 223.313032,-11.7428 339.548092,0"
       prop_scale="1.19"
       scale_y_rel="false"
       vertical="false"
       bendpath-nodetypes="cc" />
  </defs>
  <sodipodi:namedview
     pagecolor="#ffffff"
     bordercolor="#666666"
     borderopacity="1"
     objecttolerance="10"
     gridtolerance="10"
     guidetolerance="10"
     inkscape:pageopacity="0"
     inkscape:pageshadow="2"
     inkscape:window-width="1920"
     inkscape:window-height="1004"
     id="namedview11"
     showgrid="true"
     inkscape:zoom="2.3017543"
     inkscape:cx="84.03852"
     inkscape:cy="161.09318"
     inkscape:window-x="1680"
     inkscape:window-y="0"
     inkscape:window-maximized="1"
     inkscape:current-layer="svg2"
     inkscape:snap-bbox="true"
     inkscape:object-nodes="true"
     inkscape:snap-midpoints="true"
     inkscape:snap-grids="true"
     inkscape:snap-bbox-edge-midpoints="true"
     showguides="true"
     inkscape:guide-bbox="true">
    <inkscape:grid
       type="xygrid"
       id="grid2990"
       empspacing="5"
       visible="true"
       enabled="true"
       snapvisiblegridlinesonly="true"
       spacingx="10px"
       spacingy="10px"
       dotted="false" />
    <sodipodi:guide
       orientation="1,0"
       position="55.202458,260.58927"
       id="guide3872" />
    <sodipodi:guide
       orientation="1,0"
       position="265.17816,340"
       id="guide3874" />
    <sodipodi:guide
       orientation="0,1"
       position="317.80107,264.96094"
       id="guide3876" />
    <sodipodi:guide
       orientation="0,1"
       position="325.098,54.759006"
       id="guide3878" />
  </sodipodi:namedview>
  <metadata
     id="metadata2975">image/svg+xmlen<rdf:RDF>
  <cc:Work
     rdf:about="">
    <dc:format>image/svg+xml</dc:format>
    <dc:type
       rdf:resource="http://purl.org/dc/dcmitype/StillImage" />
    <dc:title></dc:title>
  </cc:Work>
</rdf:RDF>
</metadata>
  <path
     sodipodi:type="arc"
     style="color:#000000;fill:#fefefe;fill-opacity:1;fill-rule:nonzero;stroke:none;stroke-width:0;marker:none;visibility:visible;display:inline;overflow:visible;enable-background:accumulate"
     id="path3870"
     sodipodi:cx="155.56349"
     sodipodi:cy="150.29437"
     sodipodi:rx="14.495689"
     sodipodi:ry="14.495689"
     d="m 170.05918,150.29437 a 14.495689,14.495689 0 1 1 -28.99138,0 14.495689,14.495689 0 1 1 28.99138,0 z"
     transform="matrix(-0.21094722,-1.4456538,1.4456538,-0.21094722,-19.265297,424.61233)"
     inkscape:transform-center-x="1.1714733"
     inkscape:transform-center-y="-0.97449388" />
  <path
     style="color:#000000;fill:#fefefe;fill-opacity:1;fill-rule:nonzero;stroke:none;stroke-width:0;marker:none;visibility:visible;display:inline;overflow:visible;enable-background:accumulate"
     d="m 211.49129,194.81602 c 9.01595,-1.71356 17.80039,3.82364 19.70777,12.80056 1.90736,8.97692 -4.03056,17.00405 -12.80057,19.70776 -41.08148,12.665 -53.86231,-48.89445 -55.52618,-56.72537 -0.78354,-3.68767 0.0437,-9.15808 8.59121,-1.57792 9.60358,8.51667 17.03187,30.16555 40.02777,25.79497 z"
     id="path3870-3"
     inkscape:connector-curvature="0"
     sodipodi:nodetypes="ssssss"
     inkscape:transform-center-x="-30.734787"
     inkscape:transform-center-y="28.13345" />
  <path
     style="color:#000000;fill:#fefefe;fill-opacity:1;fill-rule:nonzero;stroke:none;stroke-width:0;marker:none;visibility:visible;display:inline;overflow:visible;enable-background:accumulate"
     d="m 175.97869,115.88341 c -4.46498,-8.01794 -1.97505,-18.09899 5.9449,-22.735619 7.9199,-4.636659 17.40828,-1.527976 22.73564,5.944827 24.95496,35.004852 -29.45,66.516992 -36.35884,70.561742 -3.25345,1.90471 -8.7061,2.84188 -4.20252,-7.65752 5.05999,-11.79655 23.26923,-25.663 11.88087,-46.11342 z"
     id="path3870-3-5"
     inkscape:connector-curvature="0"
     sodipodi:nodetypes="ssssss"
     inkscape:transform-center-x="-20.41205"
     inkscape:transform-center-y="-38.08396" />
  <path
     style="color:#000000;fill:#fefefe;fill-opacity:1;fill-rule:nonzero;stroke:none;stroke-width:0;marker:none;visibility:visible;display:inline;overflow:visible;enable-background:accumulate"
     d="m 119.48622,189.24683 c -4.39972,8.05396 -14.25474,11.32594 -22.401551,7.10073 -8.146833,-4.22521 -10.579303,-13.90905 -7.100723,-22.40158 16.294694,-39.78154 71.971934,-10.57609 79.078744,-6.89024 3.34667,1.7357 7.04821,5.84766 -4.2349,7.63967 -12.67709,2.01338 -34.11971,-5.99082 -45.34157,14.55142 z"
     id="path3870-3-5-6"
     inkscape:connector-curvature="0"
     sodipodi:nodetypes="ssssss"
     inkscape:transform-center-x="35.925714"
     inkscape:transform-center-y="6.7437608" />
</svg>

<svg width="320" height="320" viewBox="0 0 320 320" fill="none" xmlns="http://www.w3.org/2000/svg">
<path d="M162.135 147.062C167.693 146.251 173.345 147.681 177.848 151.038C182.352 154.394 185.337 159.402 186.148 164.96C186.959 170.518 185.529 176.17 182.173 180.673C178.816 185.177 173.808 188.162 168.25 188.973C162.693 189.784 157.04 188.354 152.537 184.998C148.033 181.641 145.048 176.633 144.237 171.075C143.426 165.518 144.856 159.865 148.212 155.362C151.569 150.859 156.577 147.873 162.135 147.062V147.062Z" fill="#FEFEFE"/>
<path d="M211.491 194.816C220.507 193.103 229.292 198.64 231.199 207.617C233.106 216.594 227.168 224.621 218.398 227.325C177.317 239.99 164.536 178.43 162.872 170.599C162.089 166.912 162.916 161.441 171.463 169.021C181.067 177.538 188.495 199.187 211.491 194.816V194.816Z" fill="#FEFEFE"/>
<path d="M175.979 115.883C171.514 107.865 174.004 97.7842 181.924 93.1475C189.844 88.5109 199.332 91.6196 204.659 99.0924C229.614 134.097 175.209 165.609 168.3 169.654C165.047 171.559 159.594 172.496 164.098 161.997C169.158 150.2 187.367 136.334 175.979 115.883L175.979 115.883Z" fill="#FEFEFE"/>
<path d="M119.486 189.247C115.087 197.301 105.232 200.573 97.0847 196.348C88.9379 192.122 86.5054 182.439 89.984 173.946C106.279 134.164 161.956 163.37 169.063 167.056C172.409 168.791 176.111 172.903 164.828 174.695C152.151 176.709 130.708 168.705 119.486 189.247Z" fill="#FEFEFE"/>
</svg>
